X:498
T:Slaughterhouse. (p)1702.PLFD.498
M:6/4
L:1/4
Q:3/4=90
S:Playford, Dancing Master,Supp.to 11th Ed.,1702.
O:England
Z:Chris Partington.
K:C
G2c BdB | c/d/ec d2G | c>BA GEA | D3D2G |
C2c BdB | (c/d/)ec d2B | c/B/AG F/G/A^F | G3- G2 :|
|: g |\
(e/f/)(f3/2e/4f/4) g2c | f2g a>gf | a>ba ge2 | d3- d2c |
(Bg)f (ec)B | (Af)e (dB)G | A/B/cA B/c/dB | c3- c2 :|
